X:296
T: ES WOLLT EIN JAEGER JAGEN
N: E1439
O: Europa, Mitteleuropa, Deutschland, Wuerttemberg
R: Staende -, Jaeger - Lied, Liebe
M: 6/8
L: 1/16
K: F
AB | c3dc2A3GA2 | B3cB2G4
AB | c3dc2A3GA2 | B3cB2G4
C2 | F3GF2G3AB2 | c4fdc4
B2 | A3BA2G3AG2 | F6z4

